X: 1
T:Down Parade
T:Twelve Up
T:Portobello Hornpipe
M:4/4
L:1/8
Q:150
R:Hornpipe
Z:Brian Martin <brian_martin12345@yahoo.com> Winterbourn Downs Morris  (rcvd Jan 2003)
K:G
((3DEF) | G2G>F G>Bd>e | d>cB>A G>AB>G | A2A>G A2G>A | B>A ((3BAG) E2 ((3DEF) | G2 G>F
G>Bd>e | d>cB>A G>AB>c | d>BG>B c>AF>A | A2G2G2 |] 
B>c | d2d2d2e>f | g>fe>d e3d | e>dc>B c>BA>G | F>GA>F D2B2 | c2e>cB2d>B | A>B ((3cB)G2 B>c | d>BG>B c>AF>A | A2G2G2 || 

